X: 2
T: Kalinka
O: Russia
M: 2/4
L: 1/8
K: Em
|: "Em"HB2 \
| "B7"A2 FG | A2 FG | A2 GF | "Em"E2 BB \
| "B7"A>G FG | A2 FG | A2 GF | "Em"E2 :| "fine"He4 | "D7"Hd4 ||
| "G"Bd "D7"cB/A/ | "G"G2 D2 | Bd "D7"cB/A/ | "G"G2 D2 \
| "C"E2 EF | "A7"AG FE | "D"D2 "(Em)"D2 | "D"D2 Hd2 |
| "G"Bd "D7"AB | "G"G2 D2 | Bd "D7"AB | "G"G2 D2 \
| "C"E2 EF | "A7"AG FE | "D"d2 "Am"c2 | "B7"HB4 |]
